X:140
T:Mulloy's Reel  
B:CRE1.138 (Ril Ui Mhaolmhuaidh)
F:file ID: cre.1/140mulloy
S:Tommy Potts
M:C
L:1/8
Q:180
R:reel
K:D
A|d2Ad fdAF|GFEF GABc|d2Ad fdAF|GBAG FDD2|
d2Ad fdAF|GFEF GABc|d2Ad fdAF|GBAG FDD2||
fagf gbag|fagf gfeg|fagf gbag|fgeg fddA|
dfaf gbag|fagf gfeg|fedc dcBA|GABc dgfe||

%%%

